X:1
T:Papa loves Mambo
T:Papa loves Mambo
T:Al Hoffman, Dick Manning, Bix Reichner
C:Al Hoffman, Dick Manning, Bix Reichner
Z:All Rights Reserved
L:1/8
M:4/4
K:C
V:1 treble nm="Electric Piano"
%%MIDI program 4
V:1
|:"Dm7" AAAA- A"G7" G3 |"Dm7" z8 |"C" AAAA- A G3 | z8 |"Dm7" DFAc- cA F2 |"C" CEGB- BG E2 | %6
w: Pa- pa loves Mam * bo||Ma- ma loves mam * bo||look at 'em sway * with it|get- tin' so gay * with it|
"G7" B,DFA- AF D2 |"C" G2 z2 z4 |"Dm7" AAAA- A"G7" G3 |"Dm7" z8 |"C" AAAA- A G3 | z8 | %12
w: shout- in' O- lay * with it|wow!|Pa- pa loves mam * bo||Ma- ma loves mam * bo||
"Dm7" DFAc- cA F2 |"C" CEGB- BG E2 |"G7" B,DFA- AF B2 |"C" c2 z2 G2 cB- |"G7" B2 z2"Dm7" z4 | %17
w: Pa- pa does great * with it|swings like a gate * with it|he los- es weight * with it|now he goes to||
"G7" z4 F2"G7" AG- |"C" G z z2 z4 | z4 E2 GF- |"Dm7" F z z2 z4 |"G7" z4 D2"G7" AG- |"C" G z z2 z4 | %23
w: she goes fro||he goes fast||she goes slow||
 z4 G2 cB- |"G7" B z"Gm7" z2 z4 |"G7" z4 F2"G7" AG- |"C" G z z2 z4 | z4 G2"Cm" A2 | %28
w: he goes left||she goes right||Pa- pas|
"G" BBBB- BB B2 |"D7" AAAA- Ac c2 |"G7" d2 z2 z4 :| %31
w: look- in' for Ma * ma but|Ma- ma is no * where in|sight|

